svgs/regular/restroom-simple.svg

<svg xmlns="http://www.w3.org/2000/svg" viewBox="0 0 576 512"><!-- Font Awesome Pro 6.0.0-alpha2 by @fontawesome - https://fontawesome.com License - https://fontawesome.com/license (Commercial License) --><path d="M96 128C131.375 128 160 99.375 160 64S131.375 0 96 0S32 28.625 32 64S60.625 128 96 128ZM448 128C483.375 128 512 99.375 512 64S483.375 0 448 0S384 28.625 384 64S412.625 128 448 128ZM256 0C242.801 0 232 10.799 232 24V488C232 501.199 242.801 512 256 512C269.201 512 280 501.199 280 488V24C280 10.799 269.201 0 256 0ZM128 160H64C28.654 160 0 188.652 0 224V320C0 337.672 14.326 352 32 352V488C32 501.25 42.75 512 56 512S80 501.25 80 488V352H112V488C112 501.25 122.75 512 136 512S160 501.25 160 488V352C177.674 352 192 337.672 192 320V224C192 188.652 163.346 160 128 160ZM144 304H48V224C48 215.178 55.178 208 64 208H128C136.822 208 144 215.178 144 224V304ZM569.549 343.208L530.465 206.418C522.615 178.942 497.502 160 468.928 160H427.073C398.498 160 373.385 178.943 365.535 206.418L326.453 343.21C320.612 363.652 335.961 384 357.221 384H384V488C384 501.25 394.75 512 408 512S432 501.25 432 488V384H464V488C464 501.25 474.75 512 488 512S512 501.25 512 488V384H538.779C560.04 384 575.389 363.651 569.549 343.208ZM378.434 336L411.688 219.605C413.651 212.736 419.929 208 427.073 208H468.927C476.071 208 482.349 212.736 484.312 219.604L517.568 336H378.434Z"/></svg>

<svg xmlns="http://www.w3.org/2000/svg" viewBox="0 0 576 512"><!--! Font Awesome Pro 6.0.0-alpha3 by @fontawesome - https://fontawesome.com License - https://fontawesome.com/license (Commercial License) --><path d="M96 128c35.38 0 64-28.62 64-64S131.4 0 96 0S32 28.62 32 64S60.63 128 96 128zM448 128c35.38 0 64-28.62 64-64s-28.62-64-64-64s-64 28.62-64 64S412.6 128 448 128zM256 0C242.8 0 232 10.8 232 24v464C232 501.2 242.8 512 256 512c13.2 0 24-10.8 24-24V24C280 10.8 269.2 0 256 0zM128 160H64C28.65 160 0 188.7 0 224v96c0 17.67 14.33 32 32 32v136C32 501.3 42.75 512 56 512s24-10.75 24-24V352h32v136C112 501.3 122.8 512 136 512S160 501.3 160 488V352c17.67 0 32-14.33 32-32V224C192 188.7 163.3 160 128 160zM144 304h-96V224c0-8.822 7.178-16 16-16h64c8.822 0 16 7.178 16 16V304zM569.5 343.2L530.5 206.4C522.6 178.9 497.5 160 468.9 160h-41.85c-28.57 0-53.69 18.94-61.54 46.42l-39.08 136.8C320.6 363.7 335.1 384 357.2 384H384v104c0 13.25 10.75 24 24 24s24-10.75 24-24V384h32v104c0 13.25 10.75 24 24 24S512 501.3 512 488V384h26.78C560 384 575.4 363.7 569.5 343.2zM378.4 336l33.25-116.4C413.7 212.7 419.9 208 427.1 208h41.85c7.144 0 13.42 4.736 15.38 11.6L517.6 336H378.4z"/></svg>
